Numix-Circle/48x48/apps/aceofspades.svg

<svg xmlns="http://www.w3.org/2000/svg" viewBox="0 0 48 48">
 <defs>
  <linearGradient id="linearGradient4355" x1="1" x2="47" gradientUnits="userSpaceOnUse">
   <stop style="stop-color:#dbe6be;stop-opacity:1"/>
   <stop offset="1" style="stop-color:#e3eccc;stop-opacity:1"/>
  </linearGradient>
 </defs>
 <g>
  <path d="m 36.31 5 c 5.859 4.062 9.688 10.831 9.688 18.5 c 0 12.426 -10.07 22.5 -22.5 22.5 c -7.669 0 -14.438 -3.828 -18.5 -9.688 c 1.037 1.822 2.306 3.499 3.781 4.969 c 4.085 3.712 9.514 5.969 15.469 5.969 c 12.703 0 23 -10.298 23 -23 c 0 -5.954 -2.256 -11.384 -5.969 -15.469 c -1.469 -1.475 -3.147 -2.744 -4.969 -3.781 z m 4.969 3.781 c 3.854 4.113 6.219 9.637 6.219 15.719 c 0 12.703 -10.297 23 -23 23 c -6.081 0 -11.606 -2.364 -15.719 -6.219 c 4.16 4.144 9.883 6.719 16.219 6.719 c 12.703 0 23 -10.298 23 -23 c 0 -6.335 -2.575 -12.06 -6.719 -16.219 z" style="opacity:0.05"/>
  <path d="m 41.28 8.781 c 3.712 4.085 5.969 9.514 5.969 15.469 c 0 12.703 -10.297 23 -23 23 c -5.954 0 -11.384 -2.256 -15.469 -5.969 c 4.113 3.854 9.637 6.219 15.719 6.219 c 12.703 0 23 -10.298 23 -23 c 0 -6.081 -2.364 -11.606 -6.219 -15.719 z" style="opacity:0.1"/>
  <path d="m 31.25 2.375 c 8.615 3.154 14.75 11.417 14.75 21.13 c 0 12.426 -10.07 22.5 -22.5 22.5 c -9.708 0 -17.971 -6.135 -21.12 -14.75 a 23 23 0 0 0 44.875 -7 a 23 23 0 0 0 -16 -21.875 z" style="opacity:0.2"/>
 </g>
 <g transform="matrix(0,-1,1,0,0,48)" style="fill:url(#linearGradient4355);fill-opacity:1">
  <path d="M 24,1 C 36.703,1 47,11.297 47,24 47,36.703 36.703,47 24,47 11.297,47 1,36.703 1,24 1,11.297 11.297,1 24,1 Z"/>
 </g>
 <path d="m 13 13 0 2 -2 0 0 10 2 0 0 9 2 0 0 1 1 0 0 2 9 0 9 0 0 -2 1 0 0 -1 2 0 0 -9 2 0 0 -10 -2 0 0 -2 -12 0 -12 0 z" style="fill:#000;opacity:0.1;fill-opacity:1;stroke:none;fill-rule:nonzero"/>
 <g>
  <path d="m 40.03 7.531 c 3.712 4.084 5.969 9.514 5.969 15.469 0 12.703 -10.297 23 -23 23 c -5.954 0 -11.384 -2.256 -15.469 -5.969 4.178 4.291 10.01 6.969 16.469 6.969 c 12.703 0 23 -10.298 23 -23 0 -6.462 -2.677 -12.291 -6.969 -16.469 z" style="opacity:0.1"/>
 </g>
 <path d="m 12 12 l 0 2 l -2 0 l 0 10 l 14 0 l 14 0 l 0 -10 l -2 0 l 0 -2 l -12 0 l -12 0 z" style="fill:#789911;opacity:1;fill-opacity:1;stroke:none;fill-rule:nonzero"/>
 <path d="m 12 14 l 0 10 l 12 0 l 12 0 l 0 -10 l -12 0 l -12 0 z" style="fill:#9ac011;opacity:1;fill-opacity:1;stroke:none;fill-rule:nonzero"/>
 <path d="m 14 24 l 0 10 l 10 0 l 10 0 l 0 -10 l -10 0 l -10 0 z" style="fill:#ecc593;opacity:1;fill-opacity:1;stroke:none;fill-rule:nonzero"/>
 <path d="m 15 34 l 0 2 l 9 0 l 9 0 l 0 -2 l -9 0 l -9 0 z" style="fill:#cbaf75;opacity:1;fill-opacity:1;stroke:none;fill-rule:nonzero"/>
 <rect width="2" height="9" x="12" y="24" style="fill:#cbaf75;opacity:1;fill-opacity:1;stroke:none;fill-rule:nonzero"/>
 <rect width="4" height="4" x="16" y="24" style="fill:#353535;opacity:1;fill-opacity:1;stroke:none;fill-rule:nonzero"/>
 <path d="m 22 24 l 0 3 l 2 0 l 2 0 l 0 -3 l -2 0 l -2 0 z" style="fill:#e3a258;opacity:1;fill-opacity:1;stroke:none;fill-rule:nonzero"/>
 <path d="m 21 30 0 2 4 0 0 -2 z" style="fill:#717169;opacity:1;fill-opacity:1;stroke:none;fill-rule:nonzero"/>
 <rect y="24" x="-36" height="9" width="2" transform="scale(-1,1)" style="fill:#cbaf75;opacity:1;fill-opacity:1;stroke:none;fill-rule:nonzero"/>
 <rect y="24" x="-32" height="4" width="4" transform="scale(-1,1)" style="fill:#353535;opacity:1;fill-opacity:1;stroke:none;fill-rule:nonzero"/>
 <path d="m 26 29 l -1 1 l 0 2 l 2 0 l 1 -1 l -2 0 l 0 -2 z" style="fill:#554025;opacity:1;fill-opacity:1;stroke:none;fill-rule:nonzero"/>
 <rect width="2" height="2" x="26" y="29" style="fill:#e6dc35;opacity:1;fill-opacity:1;stroke:none;fill-rule:nonzero"/>
</svg>

<?xml version="1.0" encoding="UTF-8" standalone="no"?>
<svg
   xmlns:dc="http://purl.org/dc/elements/1.1/"
   xmlns:cc="http://creativecommons.org/ns#"
   xmlns:rdf="http://www.w3.org/1999/02/22-rdf-syntax-ns#"
   xmlns:svg="http://www.w3.org/2000/svg"
   xmlns="http://www.w3.org/2000/svg"
   xmlns:xlink="http://www.w3.org/1999/xlink"
   xmlns:sodipodi="http://sodipodi.sourceforge.net/DTD/sodipodi-0.dtd"
   xmlns:inkscape="http://www.inkscape.org/namespaces/inkscape"
   viewBox="0 0 48 48"
   id="svg2"
   version="1.1"
   inkscape:version="0.91 r13725"
   sodipodi:docname="aceofspades.svg">
  <metadata
     id="metadata61">
    <rdf:RDF>
      <cc:Work
         rdf:about="">
        <dc:format>image/svg+xml</dc:format>
        <dc:type
           rdf:resource="http://purl.org/dc/dcmitype/StillImage" />
      </cc:Work>
    </rdf:RDF>
  </metadata>
  <sodipodi:namedview
     pagecolor="#ffffff"
     bordercolor="#666666"
     borderopacity="1"
     objecttolerance="10"
     gridtolerance="10"
     guidetolerance="10"
     inkscape:pageopacity="0"
     inkscape:pageshadow="2"
     inkscape:window-width="750"
     inkscape:window-height="582"
     id="namedview59"
     showgrid="false"
     inkscape:object-nodes="true"
     inkscape:snap-smooth-nodes="true"
     inkscape:zoom="2.8284271"
     inkscape:cx="-6.9520863"
     inkscape:cy="15.574716"
     inkscape:window-x="520"
     inkscape:window-y="432"
     inkscape:window-maximized="0"
     inkscape:current-layer="svg2">
    <inkscape:grid
       type="xygrid"
       id="grid4200" />
  </sodipodi:namedview>
  <defs
     id="defs4">
    <linearGradient
       inkscape:collect="always"
       id="linearGradient4349">
      <stop
         style="stop-color:#dbe6be;stop-opacity:1;"
         offset="0"
         id="stop4351" />
      <stop
         style="stop-color:#e3eccc;stop-opacity:1"
         offset="1"
         id="stop4353" />
    </linearGradient>
    <linearGradient
       id="linearGradient3764"
       x1="1"
       x2="47"
       gradientUnits="userSpaceOnUse"
       gradientTransform="matrix(0,-1,1,0,-1.5e-6,47.999998)">
      <stop
         style="stop-color:#3a3a3a;stop-opacity:1"
         id="stop7" />
      <stop
         offset="1"
         style="stop-color:#444;stop-opacity:1"
         id="stop9" />
    </linearGradient>
    
    <linearGradient
       inkscape:collect="always"
       xlink:href="#linearGradient4349"
       id="linearGradient4355"
       x1="1"
       y1="24"
       x2="47"
       y2="24"
       gradientUnits="userSpaceOnUse" />
    <linearGradient
       inkscape:collect="always"
       xlink:href="#linearGradient4349"
       id="linearGradient4357"
       gradientUnits="userSpaceOnUse"
       x1="1"
       y1="24"
       x2="47"
       y2="24" />
  </defs>
  <g
     id="g21">
    <path
       d="m 36.31 5 c 5.859 4.062 9.688 10.831 9.688 18.5 c 0 12.426 -10.07 22.5 -22.5 22.5 c -7.669 0 -14.438 -3.828 -18.5 -9.688 c 1.037 1.822 2.306 3.499 3.781 4.969 c 4.085 3.712 9.514 5.969 15.469 5.969 c 12.703 0 23 -10.298 23 -23 c 0 -5.954 -2.256 -11.384 -5.969 -15.469 c -1.469 -1.475 -3.147 -2.744 -4.969 -3.781 z m 4.969 3.781 c 3.854 4.113 6.219 9.637 6.219 15.719 c 0 12.703 -10.297 23 -23 23 c -6.081 0 -11.606 -2.364 -15.719 -6.219 c 4.16 4.144 9.883 6.719 16.219 6.719 c 12.703 0 23 -10.298 23 -23 c 0 -6.335 -2.575 -12.06 -6.719 -16.219 z"
       style="opacity:0.05"
       id="path23" />
    <path
       d="m 41.28 8.781 c 3.712 4.085 5.969 9.514 5.969 15.469 c 0 12.703 -10.297 23 -23 23 c -5.954 0 -11.384 -2.256 -15.469 -5.969 c 4.113 3.854 9.637 6.219 15.719 6.219 c 12.703 0 23 -10.298 23 -23 c 0 -6.081 -2.364 -11.606 -6.219 -15.719 z"
       style="opacity:0.1"
       id="path25" />
    <path
       d="m 31.25 2.375 c 8.615 3.154 14.75 11.417 14.75 21.13 c 0 12.426 -10.07 22.5 -22.5 22.5 c -9.708 0 -17.971 -6.135 -21.12 -14.75 a 23 23 0 0 0 44.875 -7 a 23 23 0 0 0 -16 -21.875 z"
       style="opacity:0.2"
       id="path27" />
  </g>
  <g
     id="g29"
     style="fill:url(#linearGradient4355);fill-opacity:1"
     transform="matrix(0,-1,1,0,0,48)">
    <path
       d="M 24,1 C 36.703,1 47,11.297 47,24 47,36.703 36.703,47 24,47 11.297,47 1,36.703 1,24 1,11.297 11.297,1 24,1 Z"
       style="fill:url(#linearGradient4357);fill-opacity:1"
       id="path31"
       inkscape:connector-curvature="0" />
  </g>
  <path
     style="opacity:0.1;fill:#000000;fill-opacity:1;fill-rule:nonzero;stroke:none;stroke-width:2.5;stroke-linejoin:round;stroke-miterlimit:4;stroke-dasharray:none;stroke-opacity:1"
     d="m 13,13 0,2 -2,0 0,10 2,0 0,9 2,0 0,1 1,0 0,2 9,0 9,0 0,-2 1,0 0,-1 2,0 0,-9 2,0 0,-10 -2,0 0,-2 -12,0 -12,0 z"
     id="path4317"
     inkscape:connector-curvature="0" />
  <g
     id="g55">
    <path
       d="m 40.03 7.531 c 3.712 4.084 5.969 9.514 5.969 15.469 0 12.703 -10.297 23 -23 23 c -5.954 0 -11.384 -2.256 -15.469 -5.969 4.178 4.291 10.01 6.969 16.469 6.969 c 12.703 0 23 -10.298 23 -23 0 -6.462 -2.677 -12.291 -6.969 -16.469 z"
       style="opacity:0.1"
       id="path57" />
  </g>
  <path
     style="opacity:1;fill:#789911;fill-opacity:1;fill-rule:nonzero;stroke:none;stroke-width:2.5;stroke-linejoin:round;stroke-miterlimit:4;stroke-dasharray:none;stroke-opacity:1"
     d="M 12 12 L 12 14 L 10 14 L 10 24 L 24 24 L 38 24 L 38 14 L 36 14 L 36 12 L 24 12 L 12 12 z "
     id="rect4228" />
  <path
     style="opacity:1;fill:#9ac011;fill-opacity:1;fill-rule:nonzero;stroke:none;stroke-width:2.5;stroke-linejoin:round;stroke-miterlimit:4;stroke-dasharray:none;stroke-opacity:1"
     d="M 12 14 L 12 24 L 24 24 L 36 24 L 36 14 L 24 14 L 12 14 z "
     id="rect4211" />
  <path
     style="opacity:1;fill:#ecc593;fill-opacity:1;fill-rule:nonzero;stroke:none;stroke-width:2.5;stroke-linejoin:round;stroke-miterlimit:4;stroke-dasharray:none;stroke-opacity:1"
     d="M 14 24 L 14 34 L 24 34 L 34 34 L 34 24 L 24 24 L 14 24 z "
     id="rect4232" />
  <path
     style="opacity:1;fill:#cbaf75;fill-opacity:1;fill-rule:nonzero;stroke:none;stroke-width:2.5;stroke-linejoin:round;stroke-miterlimit:4;stroke-dasharray:none;stroke-opacity:1"
     d="M 15 34 L 15 36 L 24 36 L 33 36 L 33 34 L 24 34 L 15 34 z "
     id="rect4234" />
  <rect
     style="opacity:1;fill:#cbaf75;fill-opacity:1;fill-rule:nonzero;stroke:none;stroke-width:2.5;stroke-linejoin:round;stroke-miterlimit:4;stroke-dasharray:none;stroke-opacity:1"
     id="rect4236"
     width="2"
     height="9"
     x="12"
     y="24" />
  <rect
     style="opacity:1;fill:#353535;fill-opacity:1;fill-rule:nonzero;stroke:none;stroke-width:2.5;stroke-linejoin:round;stroke-miterlimit:4;stroke-dasharray:none;stroke-opacity:1"
     id="rect4238"
     width="4"
     height="4"
     x="16"
     y="24" />
  <path
     style="opacity:1;fill:#e3a258;fill-opacity:1;fill-rule:nonzero;stroke:none;stroke-width:2.5;stroke-linejoin:round;stroke-miterlimit:4;stroke-dasharray:none;stroke-opacity:1"
     d="M 22 24 L 22 27 L 24 27 L 26 27 L 26 24 L 24 24 L 22 24 z "
     id="rect4240" />
  <path
     style="opacity:1;fill:#717169;fill-opacity:1;fill-rule:nonzero;stroke:none;stroke-width:2.5;stroke-linejoin:round;stroke-miterlimit:4;stroke-dasharray:none;stroke-opacity:1"
     d="m 21,30 0,2 4,0 0,-2 z"
     id="rect4242"
     inkscape:connector-curvature="0"
     sodipodi:nodetypes="ccccc" />
  <rect
     y="24"
     x="-36"
     height="9"
     width="2"
     id="rect4273"
     style="opacity:1;fill:#cbaf75;fill-opacity:1;fill-rule:nonzero;stroke:none;stroke-width:2.5;stroke-linejoin:round;stroke-miterlimit:4;stroke-dasharray:none;stroke-opacity:1"
     transform="scale(-1,1)" />
  <rect
     y="24"
     x="-32"
     height="4"
     width="4"
     id="rect4275"
     style="opacity:1;fill:#353535;fill-opacity:1;fill-rule:nonzero;stroke:none;stroke-width:2.5;stroke-linejoin:round;stroke-miterlimit:4;stroke-dasharray:none;stroke-opacity:1"
     transform="scale(-1,1)" />
  <path
     style="opacity:1;fill:#554025;fill-opacity:1;fill-rule:nonzero;stroke:none;stroke-width:2.5;stroke-linejoin:round;stroke-miterlimit:4;stroke-dasharray:none;stroke-opacity:1"
     d="M 26 29 L 25 30 L 25 32 L 27 32 L 28 31 L 26 31 L 26 29 z "
     id="rect4341" />
  <rect
     style="opacity:1;fill:#e6dc35;fill-opacity:1;fill-rule:nonzero;stroke:none;stroke-width:2.5;stroke-linejoin:round;stroke-miterlimit:4;stroke-dasharray:none;stroke-opacity:1"
     id="rect4343"
     width="2"
     height="2"
     x="26"
     y="29" />
</svg>
